X: 8346
T: Coulagh Bay
R: hornpipe
M: 4/4
K: Dmajor
|:FE|(3DEF DB, A,B,DF|EDFE DEFA|dFFA GEED|(3EFG FA GBFE|
(3DEF DB, A,B,DF|EDFE DEFA|G2BG AdFD|A,CEC|D2:|
fe|dAfe defa|(3gab ed egfe|dAFA GFGB|AdFD EFGA|
dAfe defa|(3gab ed ecAF|G2BG AdFD|A,CEC|D2:|

